assets/images/icons/btn_decor.svg

<svg width="49" height="21" viewBox="0 0 49 21" fill="none" xmlns="http://www.w3.org/2000/svg">
<path d="M24.267 0.413086L21.8851 4.92709L19.5801 9.44109C21.232 12.6105 22.6919 15.3573 24.3246 18.4691L29.0691 9.44109L26.6296 4.92709L24.267 0.413086Z" fill="white"/>
<path d="M48.4379 15.7991L48.2074 15.6647L47.9769 15.511L47.7271 15.3765L47.4966 15.2229L47.2469 15.0884L47.0164 14.9539L46.7859 14.8195L46.5362 14.685L46.2865 14.5506L46.056 14.4353L45.8063 14.3009L45.5566 14.1664L45.3261 14.0319L45.0764 13.9167L44.8267 13.7822L44.5769 13.667L44.3272 13.5517L44.0775 13.4365L43.8278 13.302L43.6934 13.2444L41.4844 18.0657L41.5804 18.1041L41.8109 18.2002L42.0222 18.3154L42.2527 18.4307L42.464 18.5267L42.6753 18.642L42.9058 18.7572L43.1171 18.8725L43.3284 18.9685L43.5397 19.0838L43.7702 19.2182L43.9815 19.3335L44.1928 19.4487L44.4041 19.564L44.6154 19.6792L44.8267 19.8137L45.038 19.9289L45.2492 20.0442L45.4605 20.1787L45.6718 20.3131L45.8639 20.4284L48.6299 15.9144L48.4379 15.7991Z" fill="white"/>
<path d="M38.119 11.093L37.8501 11.0161L37.5812 10.9393L37.3123 10.8432L37.0434 10.7664L36.7744 10.7088L36.4863 10.632L36.2174 10.5551L35.9485 10.4783L35.6796 10.4207L35.3914 10.3438L35.1225 10.267L34.8536 10.2094L34.5655 10.1517L34.2965 10.0941L34.0084 10.0173L33.7395 9.95965L33.4514 9.92124L33.1825 9.86361L33.0288 9.8252L32.0684 15.0307L32.1836 15.0499L32.4333 15.1075L32.683 15.146L32.9135 15.2036L33.1632 15.2612L33.413 15.3188L33.6627 15.3765L33.8932 15.4341L34.1429 15.4725L34.3926 15.5493L34.6231 15.607L34.8728 15.6646L35.1225 15.7414L35.353 15.799L35.5835 15.8567L35.8332 15.9335L36.0637 16.0103L36.3134 16.068L36.5439 16.1448L36.7937 16.2216L36.8897 16.26L38.484 11.2082L38.388 11.189L38.119 11.093Z" fill="white"/>
<path d="M15.504 9.80607L15.2159 9.8637L14.9278 9.92132L14.6589 9.95974L14.3707 10.0174L14.1018 10.0942L13.8137 10.1518L13.5448 10.2095L13.2566 10.2671L12.9877 10.3439L12.7188 10.4207L12.4499 10.4784L12.1617 10.5552L11.8928 10.632L11.6239 10.7089L11.355 10.7665L11.0861 10.8433L10.8172 10.9394L10.529 11.0162L10.2793 11.093L10.1641 11.1315L11.7584 16.1833L11.8352 16.1449L12.0849 16.068L12.3154 16.0104L12.5459 15.9336L12.7956 15.8568L13.0453 15.7991L13.2758 15.7415L13.5256 15.6647L13.7561 15.607L14.0058 15.5494L14.2363 15.4726L14.486 15.4342L14.7357 15.3765L14.9854 15.3189L15.2159 15.2613L15.4656 15.2037L15.7153 15.146L15.965 15.1076L16.2147 15.05L16.4452 15.0116L16.5797 14.9924L15.6193 9.78687L15.504 9.80607Z" fill="white"/>
<path d="M4.84055 13.1866L4.59084 13.3019L4.34113 13.4363L4.09141 13.5516L3.8417 13.6668L3.59199 13.7821L3.34228 13.9165L3.09257 14.0318L2.84286 14.1662L2.61236 14.3007L2.36265 14.4352L2.11294 14.5504L1.88243 14.6849L1.63272 14.8193L1.40222 14.9538L1.15251 15.0883L0.922009 15.2227L0.672298 15.3764L0.441796 15.5108L0.211294 15.6645L0 15.7798L2.78524 20.2938L2.95811 20.1785L3.16941 20.0441L3.36149 19.9288L3.57278 19.8135L3.78408 19.6791L3.99537 19.5638L4.22587 19.4486L4.43717 19.3333L4.64846 19.2181L4.85976 19.0836L5.07105 18.9684L5.28234 18.8723L5.51284 18.7571L5.72414 18.6418L5.93543 18.5266L6.16593 18.4305L6.37723 18.3153L6.60773 18.2L6.81902 18.104L7.04953 18.0079L7.16478 17.9503L4.9558 13.1482L4.84055 13.1866Z" fill="white"/>
</svg>

<svg width="49" height="21" fill="none" xmlns="http://www.w3.org/2000/svg"><path d="M24.267.413l-2.382 4.514-2.305 4.514c1.652 3.17 3.112 5.916 4.745 9.028l4.744-9.028-2.44-4.514L24.268.413zM48.438 15.8l-.23-.135-.231-.154-.25-.134-.23-.154-.25-.135-.23-.134-.231-.135-.25-.134-.25-.134-.23-.116-.25-.134-.25-.135-.23-.134-.25-.115-.25-.135-.25-.115-.249-.115-.25-.115-.25-.135-.134-.058-2.209 4.822.096.038.23.096.212.115.23.116.212.096.211.115.23.115.212.115.211.096.212.116.23.134.211.116.212.115.211.115.211.115.212.135.211.115.211.115.212.135.21.134.193.115 2.766-4.514-.192-.115zm-10.319-4.707l-.269-.077-.269-.077-.269-.096-.269-.077-.269-.057-.288-.077-.269-.077-.268-.077-.27-.057-.288-.077-.268-.077-.27-.058-.288-.057-.268-.058-.289-.077-.269-.057-.288-.039-.269-.057-.153-.039-.96 5.206.115.019.25.057.249.039.23.058.25.057.25.058.25.057.23.058.25.039.25.076.23.058.25.058.25.076.23.058.23.058.25.077.23.076.25.058.23.077.25.077.097.038 1.594-5.052-.096-.019-.269-.096zM15.504 9.806l-.288.058-.288.057-.27.039-.287.057-.27.077-.287.058-.27.058-.287.057-.27.077-.268.077-.27.057-.287.077-.27.077-.268.077-.269.058-.269.076-.269.096-.288.077-.25.077-.115.039 1.594 5.051.077-.038.25-.077.23-.058.23-.076.25-.077.25-.058.23-.057.25-.077.231-.058.25-.058.23-.076.25-.039.25-.057.25-.058.23-.058.25-.057.25-.058.249-.038.25-.058.23-.038.135-.02-.96-5.205-.116.02zM4.84 13.187l-.25.115-.249.134-.25.116-.25.115-.249.115-.25.134-.25.116-.25.134-.23.135-.25.134-.25.115-.23.135-.25.134-.23.135-.25.134-.23.135-.25.153-.23.135-.23.154L0 15.78l2.785 4.514.173-.116.211-.134.192-.115.212-.115.211-.135.211-.115.23-.115.212-.116.211-.115.212-.134.211-.116.211-.096.23-.115.212-.115.211-.115.23-.097.212-.115.23-.115.212-.096.23-.096.116-.058-2.21-4.802-.114.039z" fill="#fff"/></svg>
